staging/svg/step-3.svg

<?xml version="1.0" encoding="UTF-8"?>
<svg width="117px" height="175px" viewBox="0 0 117 175" version="1.1" xmlns="http://www.w3.org/2000/svg" xmlns:xlink="http://www.w3.org/1999/xlink">
    <!-- Generator: Sketch 55.2 (78181) - https://sketchapp.com -->
    <title>3</title>
    <desc>Created with Sketch.</desc>
    <g id="final" stroke="none" stroke-width="1" fill="none" fill-rule="evenodd" fill-opacity="0.15">
        <g id="mobile_V1" transform="translate(-242.000000, -1448.000000)" fill="#439417" fill-rule="nonzero">
            <g id="3" transform="translate(242.000000, 1448.000000)">
                <path d="M14.31,138.24 C18.8100225,141.840018 24.1199694,145.214984 30.24,148.365 C36.3600306,151.515016 44.0999532,153.09 53.46,153.09 C64.8000567,153.09 73.7999667,150.030031 80.46,143.91 C87.1200333,137.789969 90.45,129.600051 90.45,119.34 C90.45,110.159954 87.6150284,102.60003 81.945,96.66 C76.2749717,90.7199703 67.9500549,87.75 56.97,87.75 C53.7299838,87.75 50.7600135,88.0199973 48.06,88.56 C45.3599865,89.1000027 42.7500126,89.8199955 40.23,90.72 L32.4,78.03 L80.19,22.41 L12.15,22.41 L12.15,0 L109.89,0 L109.89,19.44 L66.15,70.47 C73.7100378,70.47 80.5499694,71.6399883 86.67,73.98 C92.7900306,76.3200117 98.054978,79.6499784 102.465,83.97 C106.875022,88.2900216 110.249988,93.4649699 112.59,99.495 C114.930012,105.52503 116.1,112.229963 116.1,119.61 C116.1,128.610045 114.480016,136.529966 111.24,143.37 C107.999984,150.210034 103.545028,155.924977 97.875,160.515 C92.2049717,165.105023 85.5450383,168.614988 77.895,171.045 C70.2449618,173.475012 62.0100441,174.69 53.19,174.69 C46.7099676,174.69 40.770027,174.150005 35.37,173.07 C29.969973,171.989995 25.1100216,170.550009 20.79,168.75 C16.4699784,166.949991 12.6000171,164.925011 9.18,162.675 C5.7599829,160.424989 2.7000135,158.130012 1.84741111e-13,155.79 L14.31,138.24 Z"></path>
            </g>
        </g>
    </g>
</svg>

<svg xmlns="http://www.w3.org/2000/svg" width="117" height="175">
  <path fill="#439417" fill-opacity=".15" fill-rule="nonzero" d="M14.31 138.24c4.5 3.6 9.81 6.975 15.93 10.125 6.12 3.15 13.86 4.725 23.22 4.725 11.34 0 20.34-3.06 27-9.18 6.66-6.12 9.99-14.31 9.99-24.57 0-9.18-2.835-16.74-8.505-22.68-5.67-5.94-13.995-8.91-24.975-8.91-3.24 0-6.21.27-8.91.81s-5.31 1.26-7.83 2.16L32.4 78.03l47.79-55.62H12.15V0h97.74v19.44L66.15 70.47c7.56 0 14.4 1.17 20.52 3.51 6.12 2.34 11.385 5.67 15.795 9.99s7.785 9.495 10.125 15.525c2.34 6.03 3.51 12.735 3.51 20.115 0 9-1.62 16.92-4.86 23.76s-7.695 12.555-13.365 17.145-12.33 8.1-19.98 10.53c-7.65 2.43-15.885 3.645-24.705 3.645-6.48 0-12.42-.54-17.82-1.62s-10.26-2.52-14.58-4.32c-4.32-1.8-8.19-3.825-11.61-6.075S2.7 158.13 0 155.79l14.31-17.55z"/>
</svg>
